X: 4368
M: 6/8
L: 1/8
K: Em	% and G
efg |\
gab bc'd' | d'c'b bag | gfe efg | f^dB efg |\
gab bc'd' | d'c'b bag | gfe efg | f2z :|
|: gag |\
^cdc fgf | BcB efe | ^dfe def | gfe gag |\
^cdc fgf | BcB efe | ^dfe def | e2z :|
|: g2(g |\


